x-pack/solutions/security/plugins/security_solution/public/reports/components/ai_value/analytics_speed_acceleration.svg

<svg xmlns="http://www.w3.org/2000/svg" width="56" height="56" viewBox="0 0 56 56" fill="none">
  <mask id="mask0_7132_16" style="mask-type:luminance" maskUnits="userSpaceOnUse" x="3" y="7" width="50" height="44">
    <path d="M52.8763 7.4375H3.9375V50.05H52.8763V7.4375Z" fill="white"/>
  </mask>
  <g mask="url(#mask0_7132_16)">
    <path d="M7.13135 9.89624H18.9438" stroke="#153385" stroke-miterlimit="10"/>
    <path d="M6.15137 21.1837H16.2357" stroke="#153385" stroke-miterlimit="10"/>
    <path d="M7.84424 32.4712H19.6567" stroke="#153385" stroke-miterlimit="10"/>
    <path d="M8.73682 26.8275H17.3381" stroke="#153385" stroke-miterlimit="10"/>
    <path d="M7.84424 15.54H15.0849" stroke="#153385" stroke-miterlimit="10"/>
    <path d="M48.593 7.6781H17.058C15.7105 7.6781 14.6211 8.76748 14.6211 10.115V34.09C14.6211 35.4375 15.7105 36.5268 17.058 36.5268H48.593C49.9405 36.5268 51.0298 35.4375 51.0298 34.09V10.115C51.0298 8.76748 49.9405 7.6781 48.593 7.6781Z" fill="#153385"/>
    <path d="M48.593 7.6781H17.058C15.7105 7.6781 14.6211 8.76748 14.6211 10.115V34.09C14.6211 35.4375 15.7105 36.5268 17.058 36.5268H48.593C49.9405 36.5268 51.0298 35.4375 51.0298 34.09V10.115C51.0298 8.76748 49.9405 7.6781 48.593 7.6781Z" stroke="#101C3F" stroke-miterlimit="10"/>
    <path d="M49.6564 7.65625H18.1214C16.7739 7.65625 15.6846 8.74563 15.6846 10.0931V34.0681C15.6846 35.4156 16.7739 36.505 18.1214 36.505H49.6564C51.0039 36.505 52.0933 35.4156 52.0933 34.0681V10.0931C52.0933 8.74563 51.0039 7.65625 49.6564 7.65625Z" fill="#0B64DD"/>
    <path d="M52.0933 21.1357C49.5121 21.9319 49.3283 28.1882 46.3971 28.1882C43.2689 28.1882 43.2689 21.0525 40.1408 21.0525C37.0127 21.0525 37.0127 28.1882 33.8846 28.1882C30.7564 28.1882 30.7564 17.0188 27.6283 17.0188C24.5002 17.0188 24.5002 28.1882 21.3721 28.1882C18.4452 28.1882 18.2571 21.945 15.6846 21.14" stroke="white" stroke-miterlimit="10"/>
    <path d="M49.6564 7.65625H18.1214C16.7739 7.65625 15.6846 8.74563 15.6846 10.0931V34.0681C15.6846 35.4156 16.7739 36.505 18.1214 36.505H49.6564C51.0039 36.505 52.0933 35.4156 52.0933 34.0681V10.0931C52.0933 8.74563 51.0039 7.65625 49.6564 7.65625Z" stroke="#101C3F" stroke-miterlimit="10"/>
    <path d="M15.7104 13.7638H52.0142" stroke="#101C3F" stroke-miterlimit="10"/>
    <path d="M23.6992 10.1937H19.591C19.136 10.1937 18.7642 10.5656 18.7642 11.0206C18.7642 11.4756 19.136 11.8475 19.591 11.8475H23.6992C24.1542 11.8475 24.526 11.4756 24.526 11.0206C24.526 10.5656 24.1542 10.1937 23.6992 10.1937Z" fill="white"/>
    <path d="M18.7642 33.8319H29.6448" stroke="#101C3F" stroke-miterlimit="10"/>
    <path d="M18.7642 31.7275H23.3579" stroke="#101C3F" stroke-miterlimit="10"/>
    <path d="M4.15625 49.8313V47.8494C4.15625 38.0538 12.1275 30.0825 21.9231 30.0825C31.7188 30.0825 39.69 38.0538 39.69 47.8494V49.8313H4.15625Z" fill="#153385" stroke="#101C3F" stroke-miterlimit="10"/>
    <path d="M6.13818 49.8313V47.8494C6.13818 38.0538 14.1094 30.0825 23.9051 30.0825C33.7007 30.0825 41.6719 38.0538 41.6719 47.8494V49.8313H6.13818Z" fill="#48EFCF" stroke="#101C3F" stroke-miterlimit="10"/>
    <path d="M8.12012 47.8493C8.12012 39.13 15.1857 32.0643 23.9051 32.0643C32.6245 32.0643 39.6901 39.13 39.6901 47.8493H8.12012Z" fill="#101C3F"/>
    <path d="M38.5308 47.8493H39.6902C39.6902 39.13 32.6246 32.0643 23.9052 32.0643C21.1183 32.0643 18.5021 32.7906 16.2314 34.055C18.2221 33.1493 20.4314 32.6418 22.7589 32.6418C31.2858 32.6418 38.2246 39.3968 38.5308 47.8493Z" stroke="#101C3F" stroke-miterlimit="10"/>
    <path d="M8.12012 47.8493H38.5307C38.2245 39.3968 31.2857 32.6418 22.7589 32.6418C20.4314 32.6418 18.222 33.1493 16.2314 34.055C11.3926 36.75 8.12012 41.9168 8.12012 47.8493Z" fill="white" stroke="#101C3F" stroke-miterlimit="10"/>
    <path d="M17.9899 45.0144L17.0317 43.1113L30.9617 37.03L31.3336 37.8175L17.9899 45.0144Z" fill="#48EFCF" stroke="#101C3F" stroke-miterlimit="10"/>
    <path d="M23.4327 39.9744C23.2139 40.0837 23.0345 40.2719 22.947 40.5212C22.7764 41.02 23.0389 41.5669 23.5377 41.7375C24.0364 41.9081 24.5833 41.6456 24.7539 41.1469C24.9245 40.6481 24.662 40.1012 24.1633 39.9306C23.9139 39.8431 23.6514 39.8694 23.4327 39.9744Z" fill="#101C3F" stroke="#101C3F" stroke-miterlimit="10"/>
    <path d="M24.0277 39.795L24.4783 39.9482L23.7652 41.8994L23.2271 41.7157L24.0277 39.795Z" fill="#101C3F"/>
    <path d="M24.9332 41.2125C25.1038 40.7137 24.9026 40.1887 24.4782 40.0444C24.0538 39.9 23.5726 40.1844 23.402 40.6875C23.2313 41.1862 23.4326 41.7112 23.857 41.8556C24.2813 42 24.7626 41.7156 24.9332 41.2125Z" fill="#101C3F" stroke="#101C3F" stroke-miterlimit="10"/>
  </g>
</svg>

<svg xmlns="http://www.w3.org/2000/svg" width="56" height="56" fill="none"><mask id="a" width="50" height="44" x="3" y="7" maskUnits="userSpaceOnUse" style="mask-type:luminance"><path fill="#fff" d="M52.876 7.438H3.938V50.05h48.938z"/></mask><g mask="url(#a)"><path stroke="#153385" stroke-miterlimit="10" d="M7.131 9.896h11.813M6.151 21.184h10.085M7.844 32.471h11.813m-10.92-5.643h8.601M7.844 15.54h7.24"/><path fill="#153385" d="M48.593 7.678H17.058a2.435 2.435 0 0 0-2.437 2.437V34.09a2.435 2.435 0 0 0 2.437 2.437h31.535a2.435 2.435 0 0 0 2.437-2.437V10.115a2.435 2.435 0 0 0-2.437-2.437"/><path stroke="#101c3f" stroke-miterlimit="10" d="M48.593 7.678H17.058a2.435 2.435 0 0 0-2.437 2.437V34.09a2.435 2.435 0 0 0 2.437 2.437h31.535a2.435 2.435 0 0 0 2.437-2.437V10.115a2.435 2.435 0 0 0-2.437-2.437Z"/><path fill="#0b64dd" d="M49.656 7.656H18.121a2.435 2.435 0 0 0-2.436 2.437v23.975a2.435 2.435 0 0 0 2.436 2.437h31.535a2.435 2.435 0 0 0 2.437-2.437V10.093a2.435 2.435 0 0 0-2.437-2.437"/><path stroke="#fff" stroke-miterlimit="10" d="M52.093 21.136c-2.58.796-2.765 7.052-5.696 7.052-3.128 0-3.128-7.135-6.256-7.135s-3.128 7.135-6.256 7.135-3.129-11.17-6.257-11.17-3.128 11.17-6.256 11.17c-2.927 0-3.115-6.243-5.687-7.048"/><path stroke="#101c3f" stroke-miterlimit="10" d="M49.656 7.656H18.121a2.435 2.435 0 0 0-2.436 2.437v23.975a2.435 2.435 0 0 0 2.436 2.437h31.535a2.435 2.435 0 0 0 2.437-2.437V10.093a2.435 2.435 0 0 0-2.437-2.437ZM15.71 13.764h36.304"/><path fill="#fff" d="M23.7 10.194h-4.11a.83.83 0 0 0-.827.827c0 .455.372.826.827.826h4.108a.83.83 0 0 0 .827-.826.83.83 0 0 0-.827-.827"/><path stroke="#101c3f" stroke-miterlimit="10" d="M18.764 33.832h10.88m-10.88-2.104h4.594"/><path fill="#153385" stroke="#101c3f" stroke-miterlimit="10" d="M4.156 49.831V47.85c0-9.795 7.972-17.766 17.767-17.766 9.796 0 17.767 7.97 17.767 17.766v1.982z"/><path fill="#48efcf" stroke="#101c3f" stroke-miterlimit="10" d="M6.138 49.831V47.85c0-9.795 7.971-17.766 17.767-17.766s17.767 7.97 17.767 17.766v1.982z"/><path fill="#101c3f" d="M8.12 47.85c0-8.72 7.066-15.786 15.785-15.786S39.69 39.13 39.69 47.85z"/><path stroke="#101c3f" stroke-miterlimit="10" d="M38.53 47.85h1.16c0-8.72-7.065-15.786-15.785-15.786-2.787 0-5.403.727-7.674 1.991a15.7 15.7 0 0 1 6.528-1.413c8.527 0 15.466 6.755 15.772 15.207Z"/><path fill="#fff" stroke="#101c3f" stroke-miterlimit="10" d="M8.12 47.85h30.41c-.306-8.453-7.244-15.208-15.771-15.208a15.7 15.7 0 0 0-6.528 1.413c-4.838 2.695-8.11 7.862-8.11 13.794Z"/><path fill="#48efcf" stroke="#101c3f" stroke-miterlimit="10" d="m17.99 45.014-.958-1.903 13.93-6.081.372.788z"/><path fill="#101c3f" stroke="#101c3f" stroke-miterlimit="10" d="M23.433 39.974a.957.957 0 1 0 1.321 1.172.957.957 0 0 0-1.321-1.172Z"/><path fill="#101c3f" d="m24.028 39.795.45.153-.713 1.951-.538-.183z"/><path fill="#101c3f" stroke="#101c3f" stroke-miterlimit="10" d="M24.933 41.213c.17-.5-.03-1.024-.455-1.169-.424-.144-.905.14-1.076.644-.17.498.03 1.023.455 1.168.424.144.906-.14 1.076-.644Z"/></g></svg>
